usr/share/icons/al-beautyline/apps/scalable/fish.svg

<?xml version="1.0" encoding="UTF-8"?>
<svg width="192pt" height="192pt" version="1.1" viewBox="0 0 192 192" xmlns="http://www.w3.org/2000/svg" xmlns:cc="http://creativecommons.org/ns#" xmlns:dc="http://purl.org/dc/elements/1.1/" xmlns:rdf="http://www.w3.org/1999/02/22-rdf-syntax-ns#" xmlns:xlink="http://www.w3.org/1999/xlink">
 <metadata>
  <rdf:RDF>
   <cc:Work rdf:about="">
    <dc:format>image/svg+xml</dc:format>
    <dc:type rdf:resource="http://purl.org/dc/dcmitype/StillImage"/>
   </cc:Work>
  </rdf:RDF>
 </metadata>
 <defs>
  <linearGradient id="linearGradient914" x1="8.1102" x2="185.69" y1="96.62" y2="96.62" gradientUnits="userSpaceOnUse">
   <stop stop-color="#2934cf" offset="0"/>
   <stop stop-color="#269ede" stop-opacity=".73358" offset="1"/>
  </linearGradient>
 </defs>
 <g fill="url(#linearGradient914)">
  <g id="#ff483fff">
   <path d="m49.3 22.24c14.02-8.62 30.59-12.93 47.03-12.45-2.47 4.49-5.51 8.69-9.34 12.12-22.89 2.01-44.29 15.49-56.21 35.1 0.57 0.71 1.14 1.42 1.71 2.12 5.46 6.24 10.08 13.37 12.41 21.39-3.09 2.69-6.12 5.69-7.75 9.52-1.12 3.27-1.31 6.76-2.01 10.14 0.99-11.08-2.73-22.45-10.24-30.67-5.52 13.56-6.09 28.86-2.93 43.06-3.65 2.83-6.54 6.44-9.5 9.95-6.19-18.4-5.74-38.92 1.04-57.1 6.66-17.86 19.52-33.28 35.79-43.18z" fill="url(#linearGradient914)"/>
  </g>
  <g id="#ff583dff">
   <path d="m96.33 9.79c17.39 0.42 34.59 6.29 48.58 16.62-2.93 2.74-7.48 5.72-6.08 10.38-1.44-1.11-2.92-2.17-4.47-3.12-13.75-9.35-30.87-13.3-47.37-11.76 3.83-3.43 6.87-7.63 9.34-12.12z" fill="url(#linearGradient914)"/>
  </g>
  <path d="m30.78 57.01c11.92-19.61 33.32-33.09 56.21-35.1 16.5-1.54 33.62 2.41 47.37 11.76-2.99-0.9-5.96-1.89-8.78-3.22-24.45-11-55-7.78-76 9.13-6.69 5.51-13.16 11.71-17.09 19.55-0.57-0.7-1.14-1.41-1.71-2.12z" opacity=".25"/>
  <path d="m46.39 85.71c2.24 6.13 1.82 12.78 1.31 19.17-1.36 12.22-7.66 23.04-14.12 33.23-0.52-0.74-1.04-1.48-1.55-2.22 10.67-14.22 17.29-32.26 14.36-50.18z" opacity=".25"/>
  <g id="#ff6d3aff">
   <path d="m138.83 36.79c-1.4-4.66 3.15-7.64 6.08-10.38 6.13 4.48 11.54 9.85 16.35 15.7 2.37-2.57 4.31-5.61 7.16-7.7 5.15-3.48 13.09-0.55 14.76 5.44-0.32 3.46 0.03 7.29-2.04 10.29-2.66 4.07-5.73 7.9-9.36 11.13-0.02-4.19-0.02-8.38-0.18-12.57-2.34 2.66-4.09 5.8-6.56 8.36-2.51 2.46-6.98 1.5-8.71-1.44-4.86-7.1-10.52-13.72-17.5-18.83z" fill="url(#linearGradient914)"/>
  </g>
  <g id="#ff7e38ff">
   <path d="m183.18 39.85c0.07 0.32 0.21 0.96 0.29 1.28 0.32 34.96 0 69.94 0.17 104.91-0.06 3.29 0.23 6.95-1.84 9.75-2.82 4.17-9.07 5.5-13.29 2.72-2.62-1.82-4.42-4.53-6.45-6.94-0.35-0.44-1.05-1.31-1.4-1.75-8.24 9.21-17.77 17.45-29.04 22.72-15.09 7.35-32.36 10.18-49 7.89 2.28-3.71 4.82-7.26 6.73-11.18 22.66 1.5 45.75-8.07 60.51-25.36 2.38-2.66 4.28-5.69 6.55-8.42 2.13-2.84 6.94-2.73 8.93 0.21 2.18 2.82 4.02 5.9 6.34 8.62 0.18-27.67-0.02-55.35 0.1-83.03 3.63-3.23 6.7-7.06 9.36-11.13 2.07-3 1.72-6.83 2.04-10.29z" fill="url(#linearGradient914)"/>
  </g>
  <path d="m183.47 41.13c2.32 1.49 2.12 4.42 2.22 6.83-0.08 34.02-0.01 68.04-0.04 102.05 0.09 3.87-1.14 7.91-4.37 10.29-3.05 3.1-8.14 3.13-11.79 1.14-2.79-2-4.92-4.75-7.52-6.97-0.98 0.11-1.96 0.23-2.93 0.34 0.98-1.1 2-2.18 3.02-3.24 2.03 2.41 3.83 5.12 6.45 6.94 4.22 2.78 10.47 1.45 13.29-2.72 2.07-2.8 1.78-6.46 1.84-9.75-0.17-34.97 0.15-69.95-0.17-104.91z" fill="url(#linearGradient914)" opacity=".2"/>
  <g id="#ff533dff">
   <path d="m64.34 49.42c6.08-2.27 13.37 2.13 14.15 8.57 1.05 5.82-3.6 11.73-9.46 12.22-5.94 0.91-11.81-4.26-11.87-10.21-0.3-4.6 2.82-9.14 7.18-10.58z" fill="url(#linearGradient914)"/>
  </g>
  <g id="#ff553dff">
   <path d="m37.15 90.04c1.63-3.83 4.66-6.83 7.75-9.52 0.52 1.72 1.01 3.46 1.49 5.19 2.93 17.92-3.69 35.96-14.36 50.18 0.51 0.74 1.03 1.48 1.55 2.22 3.91 5.51 8.58 10.46 13.79 14.74-2.54 3.06-6.9 5.46-6.8 9.93-12.89-10.43-23.02-24.43-28.1-40.26 2.96-3.51 5.85-7.12 9.5-9.95 0.87 3.59 2.07 7.09 3.37 10.54 5.17-6.65 8.5-14.63 9.8-22.93 0.7-3.38 0.89-6.87 2.01-10.14z" fill="url(#linearGradient914)"/>
  </g>
  <g id="#0000003f">
   <path d="m131.62 172.54c11.27-5.27 20.8-13.51 29.04-22.72 0.35 0.44 1.05 1.31 1.4 1.75-1.02 1.06-2.04 2.14-3.02 3.24-8.11 9.65-18.89 16.79-30.34 21.89-15.51 6.87-33.08 8.2-49.7 5.44-11.7-2.07-22.58-7.29-32.55-13.61-1.17-0.61-1.58-1.89-2.14-2.98 11.41 7.79 24.54 13.22 38.31 14.88 16.64 2.29 33.91-0.54 49-7.89z" fill="url(#linearGradient914)" opacity=".25"/>
  </g>
  <g id="#ff693bff">
   <path d="m47.37 152.85c11.86 9.64 26.73 15.42 41.98 16.4-1.91 3.92-4.45 7.47-6.73 11.18-13.77-1.66-26.9-7.09-38.31-14.88-1.28-0.88-2.49-1.86-3.74-2.77-0.1-4.47 4.26-6.87 6.8-9.93z" fill="url(#linearGradient914)"/>
  </g>
 </g>
</svg>

<?xml version="1.0" encoding="UTF-8" standalone="no"?>
<svg
   xmlns:dc="http://purl.org/dc/elements/1.1/"
   xmlns:cc="http://creativecommons.org/ns#"
   xmlns:rdf="http://www.w3.org/1999/02/22-rdf-syntax-ns#"
   xmlns:svg="http://www.w3.org/2000/svg"
   xmlns="http://www.w3.org/2000/svg"
   xmlns:sodipodi="http://sodipodi.sourceforge.net/DTD/sodipodi-0.dtd"
   xmlns:inkscape="http://www.inkscape.org/namespaces/inkscape"
   width="192pt"
   height="192pt"
   viewBox="0 0 192 192"
   version="1.1"
   id="svg34"
   sodipodi:docname="magikarp_jump.svg"
   inkscape:version="0.92.2 5c3e80d, 2017-08-06">
  <metadata
     id="metadata40">
    <rdf:RDF>
      <cc:Work
         rdf:about="">
        <dc:format>image/svg+xml</dc:format>
        <dc:type
           rdf:resource="http://purl.org/dc/dcmitype/StillImage" />
      </cc:Work>
    </rdf:RDF>
  </metadata>
  <defs
     id="defs38" />
  <sodipodi:namedview
     pagecolor="#ffffff"
     bordercolor="#666666"
     borderopacity="1"
     objecttolerance="10"
     gridtolerance="10"
     guidetolerance="10"
     inkscape:pageopacity="0"
     inkscape:pageshadow="2"
     inkscape:window-width="640"
     inkscape:window-height="480"
     id="namedview36"
     showgrid="false"
     inkscape:zoom="0.921875"
     inkscape:cx="128"
     inkscape:cy="128"
     inkscape:window-x="0"
     inkscape:window-y="0"
     inkscape:window-maximized="0"
     inkscape:current-layer="svg34" />
  <g
     id="#ff483fff">
    <path
       fill="#ff483f"
       opacity="1.00"
       d=" M 49.30 22.24 C 63.32 13.62 79.89 9.31 96.33 9.79 C 93.86 14.28 90.82 18.48 86.99 21.91 C 64.10 23.92 42.70 37.40 30.78 57.01 C 31.35 57.72 31.92 58.43 32.49 59.13 C 37.95 65.37 42.57 72.50 44.90 80.52 C 41.81 83.21 38.78 86.21 37.15 90.04 C 36.03 93.31 35.84 96.80 35.14 100.18 C 36.13 89.10 32.41 77.73 24.90 69.51 C 19.38 83.07 18.81 98.37 21.97 112.57 C 18.32 115.40 15.43 119.01 12.47 122.52 C 6.28 104.12 6.73 83.60 13.51 65.42 C 20.17 47.56 33.03 32.14 49.30 22.24 Z"
       id="path2"
       style="fill:#0000ff" />
  </g>
  <g
     id="#ff583dff">
    <path
       fill="#ff583d"
       opacity="1.00"
       d=" M 96.33 9.79 C 113.72 10.21 130.92 16.08 144.91 26.41 C 141.98 29.15 137.43 32.13 138.83 36.79 C 137.39 35.68 135.91 34.62 134.36 33.67 C 120.61 24.32 103.49 20.37 86.99 21.91 C 90.82 18.48 93.86 14.28 96.33 9.79 Z"
       id="path5"
       style="fill:#0000ff" />
  </g>
  <g
     id="#00000040">
    <path
       fill="#000000"
       opacity="0.25"
       d=" M 30.78 57.01 C 42.70 37.40 64.10 23.92 86.99 21.91 C 103.49 20.37 120.61 24.32 134.36 33.67 C 131.37 32.77 128.40 31.78 125.58 30.45 C 101.13 19.45 70.58 22.67 49.58 39.58 C 42.89 45.09 36.42 51.29 32.49 59.13 C 31.92 58.43 31.35 57.72 30.78 57.01 Z"
       id="path8" />
    <path
       fill="#000000"
       opacity="0.25"
       d=" M 46.39 85.71 C 48.63 91.84 48.21 98.49 47.70 104.88 C 46.34 117.10 40.04 127.92 33.58 138.11 C 33.06 137.37 32.54 136.63 32.03 135.89 C 42.70 121.67 49.32 103.63 46.39 85.71 Z"
       id="path10" />
  </g>
  <g
     id="#ff6d3aff">
    <path
       fill="#ff6d3a"
       opacity="1.00"
       d=" M 138.83 36.79 C 137.43 32.13 141.98 29.15 144.91 26.41 C 151.04 30.89 156.45 36.26 161.26 42.11 C 163.63 39.54 165.57 36.50 168.42 34.41 C 173.57 30.93 181.51 33.86 183.18 39.85 C 182.86 43.31 183.21 47.14 181.14 50.14 C 178.48 54.21 175.41 58.04 171.78 61.27 C 171.76 57.08 171.76 52.89 171.60 48.70 C 169.26 51.36 167.51 54.50 165.04 57.06 C 162.53 59.52 158.06 58.56 156.33 55.62 C 151.47 48.52 145.81 41.90 138.83 36.79 Z"
       id="path13"
       style="fill:#0000ff" />
  </g>
  <g
     id="#ff7e38ff">
    <path
       fill="#ff7e38"
       opacity="1.00"
       d=" M 183.18 39.85 C 183.25 40.17 183.39 40.81 183.47 41.13 C 183.79 76.09 183.47 111.07 183.64 146.04 C 183.58 149.33 183.87 152.99 181.80 155.79 C 178.98 159.96 172.73 161.29 168.51 158.51 C 165.89 156.69 164.09 153.98 162.06 151.57 C 161.71 151.13 161.01 150.26 160.66 149.82 C 152.42 159.03 142.89 167.27 131.62 172.54 C 116.53 179.89 99.26 182.72 82.62 180.43 C 84.90 176.72 87.44 173.17 89.35 169.25 C 112.01 170.75 135.10 161.18 149.86 143.89 C 152.24 141.23 154.14 138.20 156.41 135.47 C 158.54 132.63 163.35 132.74 165.34 135.68 C 167.52 138.50 169.36 141.58 171.68 144.30 C 171.86 116.63 171.66 88.95 171.78 61.27 C 175.41 58.04 178.48 54.21 181.14 50.14 C 183.21 47.14 182.86 43.31 183.18 39.85 Z"
       id="path16"
       style="fill:#0000ff" />
  </g>
  <g
     id="#00000034">
    <path
       fill="#000000"
       opacity="0.20"
       d=" M 183.47 41.13 C 185.79 42.62 185.59 45.55 185.69 47.96 C 185.61 81.98 185.68 116.00 185.65 150.01 C 185.74 153.88 184.51 157.92 181.28 160.30 C 178.23 163.40 173.14 163.43 169.49 161.44 C 166.70 159.44 164.57 156.69 161.97 154.47 C 160.99 154.58 160.01 154.70 159.04 154.81 C 160.02 153.71 161.04 152.63 162.06 151.57 C 164.09 153.98 165.89 156.69 168.51 158.51 C 172.73 161.29 178.98 159.96 181.80 155.79 C 183.87 152.99 183.58 149.33 183.64 146.04 C 183.47 111.07 183.79 76.09 183.47 41.13 Z"
       id="path19" />
  </g>
  <g
     id="#ff533dff">
    <path
       fill="#ff533d"
       opacity="1.00"
       d=" M 64.34 49.42 C 70.42 47.15 77.71 51.55 78.49 57.99 C 79.54 63.81 74.89 69.72 69.03 70.21 C 63.09 71.12 57.22 65.95 57.16 60.00 C 56.86 55.40 59.98 50.86 64.34 49.42 Z"
       id="path22"
       style="fill:#0000ff" />
  </g>
  <g
     id="#ff553dff">
    <path
       fill="#ff553d"
       opacity="1.00"
       d=" M 37.15 90.04 C 38.78 86.21 41.81 83.21 44.90 80.52 C 45.42 82.24 45.91 83.98 46.39 85.71 C 49.32 103.63 42.70 121.67 32.03 135.89 C 32.54 136.63 33.06 137.37 33.58 138.11 C 37.49 143.62 42.16 148.57 47.37 152.85 C 44.83 155.91 40.47 158.31 40.57 162.78 C 27.68 152.35 17.55 138.35 12.47 122.52 C 15.43 119.01 18.32 115.40 21.97 112.57 C 22.84 116.16 24.04 119.66 25.34 123.11 C 30.51 116.46 33.84 108.48 35.14 100.18 C 35.84 96.80 36.03 93.31 37.15 90.04 Z"
       id="path25"
       style="fill:#0000ff" />
  </g>
  <g
     id="#0000003f">
    <path
       fill="#000000"
       opacity="0.25"
       d=" M 131.62 172.54 C 142.89 167.27 152.42 159.03 160.66 149.82 C 161.01 150.26 161.71 151.13 162.06 151.57 C 161.04 152.63 160.02 153.71 159.04 154.81 C 150.93 164.46 140.15 171.60 128.70 176.70 C 113.19 183.57 95.62 184.90 79.00 182.14 C 67.30 180.07 56.42 174.85 46.45 168.53 C 45.28 167.92 44.87 166.64 44.31 165.55 C 55.72 173.34 68.85 178.77 82.62 180.43 C 99.26 182.72 116.53 179.89 131.62 172.54 Z"
       id="path28" />
  </g>
  <g
     id="#ff693bff">
    <path
       fill="#ff693b"
       opacity="1.00"
       d=" M 47.37 152.85 C 59.23 162.49 74.10 168.27 89.35 169.25 C 87.44 173.17 84.90 176.72 82.62 180.43 C 68.85 178.77 55.72 173.34 44.31 165.55 C 43.03 164.67 41.82 163.69 40.57 162.78 C 40.47 158.31 44.83 155.91 47.37 152.85 Z"
       id="path31"
       style="fill:#0000ff" />
  </g>
</svg>
